X:346
T: MEINE KLEINE GARTENLAUBE
N: B0407
O: Europa, Mitteleuropa, Deutschland
R: Liebes - Lied, Liebes - Lust
M: 3/8
L: 1/8
K: G
 | BAG | GFG | FEF | AGG
A2A | A2A | Adc | B2z
BAG | GFG | FEF | AGG
A2A | A2A | Adc | B2z
G2A | B2B | BAB | dcc
cBA | G2B | d2F | G2z

